X: 12
T: Trip to Aberdeen
%R: reel
B: "Twenty Four Country Dances for the Year 1782", Thomas Skillern, ed. p.6 #2
F: http://www.vwml.org/browse/browse-collections-dance-tune-books/browse-skillerns1782#
Z: 2014 John Chambers <jc:trillian.mit.edu>
M: C
L: 1/8
K: Bb
F |\
B2dc BGFD | EGFD EC-CF |\
B2dc BGFD | EGFE DB,B, :|
|: g |\
fBdB fB (e/d/c/B/) | fBdB Acc g |\
fBdB (B/c/e/f/) bg | fdcB FBB :|
%%begintext align
%%   Cast off two Cu. up again
%% lead down the middle up
%% again & Cast off turn
%% Corners and Lead outsides.
%%endtext

%%sep 1 1 500
%%sep 1 1 500
